X:1
T:Qui pascis inter lilia
T:Qui pascis inter lilia
%%score [ 1 2 3 4 ]
L:1/8
Q:1/4=180
M:3/2
K:C
V:1 treble nm="Soprano"
V:2 treble nm="Alto"
V:3 treble-8 nm="Tenor"
V:4 bass nm="Bass"
V:1
 D4 E4 F4 | G4 A4 F4 | G8 F4 | E8 G4 | A8 c4 | c8 B4 | A8 c4 | B8 G4 | B8 c4 | d4 B4 (d4 | %10
w: Qui pa- scis|in- * ter|li- li-|a, sep-|tus cho-|re- is|vir- gi-|num, spon-|sus de-|co- * *|
w: Te de- pre-|ca- * mur|lar- gi-|us no-|stris ad|au- ge|sen- si-|bus ne-|sci- re|pror- * *|
 B4) A4 G4 | A6 G2 F4 | E6 D2 E4 | F8 D4 | E8 F4 | G4 A4 G4 | F4 E4 D4 | E12 |] %18
w: * rus _|glo- * *|* * ri-|a spon-|dis- que|re- * dens|prae- * mi-|a.|
w: * sus _|om- * *|* * ni-|a cor-|rup- ti-|o- * nis-|vul- * ne-|ra.|
V:2
 F4 E4 D4 | D4 E4 D4 | E8 D4 | ^C8 E4 | F8 G4 | F8 D4 | F8 G4 | G8 D4 | G8 E4 | G8 G4 | F2 E6 D4 | %11
w: Qui pa- scis|in- * ter|li- li-|a, sep-|tus cho-|re- is|vir- gi-|num, spon-|sus de-|co- *|* * rus|
w: Te de- pre-|ca- * mur|lar- gi-|us no-|stris ad|au- ge|sen- si-|bus ne-|sci- re|pror- *|* * sus|
 C8 D4 | ^C6 B,2 C4 | D8 F4 | ^C8 D4 | E4 F4 E4 | D4 ^C4 D4 | ^C12 |] %18
w: glo- *|* * ri-|a spon-|dis- que|re- * dens|prae- * mi-|a.|
w: om- *|* * ni-|a cor-|rup- ti-|o- * nis|vul- * ne-|ra.|
V:3
 A4 A4 A4 | B4 c4 A4 | c8 A4 | A8 B4 | d8 e4 | A8 B4 | d8 e4 | d8 B4 | d8 c4 | B2 c2 d4 e4 | %10
w: Qui pa- scis|in- * ter|li- li-|a, sep-|tus cho-|re- is|vir- gi-|num, spon-|sus de-|co- * * *|
w: Te de- pre-|ca- * mur|lar- gi-|us no-|stris ad|au- ge|sen- si-|bus ne-|sci- re|pror- * * *|
 d4 c4 B4 | A12- | A8 A4 | A8 A4 | A8 A4 | c8 c4 | A8 F4 | A12 |] %18
w: * * rus|glo-|* ri-|a spon-|dis- que|re- dens|prae- mi-|a.|
w: * * sus|om-|* ni-|a cor-|rup- ti-|o- nis|vul- ne-|ra.|
V:4
 D,4 ^C,4 D,4 | B,,4 A,,4 D,4 | C,8 D,4 | A,,8 E,4 | D,8 C,4 | F,8 G,4 | D,8 C,4 | G,8 G,4 | %8
w: Qui pa- scis|in- * ter|li- li-|a, sep-|tus cho-|re- is|vir- gi-|num, spon-|
w: Te de- pre-|ca- * mur|lar- gi-|us no-|stris ad|au- ge|sen- si-|bus ne-|
 G,8 A,4 | G,8 E,4 | G,4 A,4 E,4 | F,6 E,2 D,4 | A,,8 A,,4 | D,8 D,4 | A,,8 D,4 | C,4 F,4 C,4 | %16
w: sus de-|co- *|* * rus|glo- * *|* ri-|a spon-|dis- que|re- * dens|
w: sci- re|pror- *|* * sus|om- * *|* ni-|a cor-|rup- ti-|o- * nis|
 D,4 A,,4 _B,,4 | A,,12 |] %18
w: prae- * mi-|a.|
w: vul- * ne-|ra.|

